X: 8345
T: Couch Adventures
R: polka
M: 2/4
K: Dmajor
f>e dB|ed Be|dB eB|dB A2|
f>e dB|ed Be|dB AF|EF D2:|
f2 ed|e/f/ a e/f/ a|ed fd|ed B2|
f2 ed|e/f/ a e/f/ a|ed fe|d2 d2:|

